assets/icons/analytics.svg

<svg width="20" height="20" viewBox="0 0 20 20" fill="none" xmlns="http://www.w3.org/2000/svg">
<path d="M5.83366 15.4609V13.4253M10.0003 15.4609V12.4076M14.167 15.4609V10.3721" stroke="currentColor" stroke-width="1.3" stroke-linecap="round"/>
<path d="M4.67285 8.89648C8.39114 9.72634 11.5805 8.4596 13.8147 5.92338M12.109 5.52196L14.0194 5.28912C14.2462 5.26184 14.4191 5.42673 14.4064 5.65773L14.2983 7.60503" stroke="currentColor" stroke-linecap="round" stroke-linejoin="round"/>
<path d="M17.917 9.99967C17.917 6.26801 17.917 4.40134 16.7578 3.24217C15.5987 2.08301 13.7328 2.08301 10.0003 2.08301C6.26866 2.08301 4.40199 2.08301 3.24283 3.24217C2.08366 4.40134 2.08366 6.26717 2.08366 9.99967C2.08366 13.7313 2.08366 15.598 3.24283 16.7572C4.40199 17.9163 6.26783 17.9163 10.0003 17.9163C13.732 17.9163 15.5987 17.9163 16.7578 16.7572C17.917 15.598 17.917 13.7322 17.917 9.99967Z" stroke="currentColor" stroke-width="1.25" stroke-linejoin="round"/>
</svg>

<svg xmlns="http://www.w3.org/2000/svg" width="20" height="20" fill="none" viewBox="0 0 20 20"><path stroke="currentColor" stroke-linecap="round" stroke-width="1.3" d="M5.834 15.46v-2.035M10 15.461v-3.053m4.167 3.053v-5.089"/><path stroke="currentColor" stroke-linecap="round" stroke-linejoin="round" d="M4.673 8.896c3.718.83 6.908-.436 9.142-2.973m-1.706-.401 1.91-.233c.227-.027.4.138.387.369l-.108 1.947"/><path stroke="currentColor" stroke-linejoin="round" stroke-width="1.25" d="M17.917 10c0-3.732 0-5.599-1.16-6.758C15.6 2.083 13.734 2.083 10 2.083c-3.731 0-5.598 0-6.757 1.16C2.083 4.4 2.083 6.266 2.083 10c0 3.731 0 5.598 1.16 6.757 1.159 1.16 3.025 1.16 6.757 1.16s5.599 0 6.758-1.16 1.159-3.025 1.159-6.757Z"/></svg>
